X:12
T:The Moon and Seven Stars
M:6/8
K:D
L:1/8
(A | "D" vd)AA AGF | "G" GAB "D" A2 (vA | "G" B)cd efg | "A" fed cBA |
"D" (vd2 A) AGF | "G" GAB "D" A2 (vA | "G" B)cd efg | "A" Adc "D" d2 :|
(vd | "A" e)AA ABA | efg "D" f2 (vf | "A" e)fg "D" fed | "E" cdB "A" A2 (vA |
"G" B)GB "D" A2 (vA | "G" B)GB "D" A2 (vA | "G" B)cd efg | "A" Adc ud2 :|

